X: 22582
T: Lady Of The Hollow
R: reel
M: 4/4
K: Adorian
|:BAGE ~F2 E2|zBBE ABdc|BAGE ~F2 EG|FD D2 FAGA|
BAGE ~F2 E2|zBBE A2 GF|EGFA GBAB|dAAG ~F2 D:|
|:FGGD GBAG|~E2 DG EGBA|~G3 d gedB|AcBA BGEF|
FGGD GBAG|~E2 DG EGAB|cBAc BAGB|AGFA GAFA:|

